X:265
T:Flowers of Edinburgh
R:Country Dance
S:from the playing of Dave Swarbrick,
S:from "The Ceilidh Album" (?)
N:An English morris version?
Z:Transcribed by Nigel Gatherer
M:2/4
K:G
L:1/8
D|GG BG/B/|dB g>e|dB B/A/G/A/|BG ED|
GG BG/B/|dB g>e|dB B/A/G/A/|BG G:|]
d|g2 f>e|Be e>f|g2 f/g/f/e/|Be eg/e/|
d/B/G/B/ dd|e/d/e/f/ gg/e/|dB B/A/G/A/|BG G:|]

